packages/ui-solid/icons/archive_24.svg

<svg width="24" height="24" viewBox="0 0 24 24" fill="none" xmlns="http://www.w3.org/2000/svg">
<path fill-rule="evenodd" clip-rule="evenodd" d="M8.33386 4.28334C7.8702 4.28334 7.42784 4.47794 7.11453 4.81973L6.54228 5.444H17.4587L16.8864 4.81973C16.5731 4.47794 16.1308 4.28334 15.6671 4.28334H8.33386ZM19.0425 7.244H4.95846C4.82738 7.48483 4.75718 7.75641 4.75718 8.0348V16.8959C4.75718 18.2797 5.87892 19.4014 7.26265 19.4014H16.7383C18.122 19.4014 19.2438 18.2797 19.2438 16.8959V8.0348C19.2438 7.75641 19.1736 7.48483 19.0425 7.244ZM3.79983 5.77402C3.25705 6.40097 2.95718 7.20336 2.95718 8.0348V16.8959C2.95718 19.2738 4.88481 21.2014 7.26265 21.2014H16.7383C19.1162 21.2014 21.0438 19.2738 21.0438 16.8959V8.0348C21.0438 7.17062 20.7198 6.33782 20.1359 5.70078L18.2133 3.60343C17.5591 2.88971 16.6353 2.48335 15.6671 2.48335H8.33386C7.36565 2.48335 6.4419 2.88971 5.78765 3.60343L3.86508 5.70078C3.858 5.70851 3.85095 5.71627 3.84394 5.72405C3.82864 5.74015 3.81392 5.75682 3.79983 5.77402ZM12.0005 9.34201C12.4975 9.34201 12.9005 9.74495 12.9005 10.242V14.5401L14.2532 13.2489C14.6127 12.9057 15.1824 12.919 15.5256 13.2785C15.8688 13.6381 15.8556 14.2078 15.496 14.551L12.6219 17.2945C12.2741 17.6264 11.7268 17.6264 11.3791 17.2945L8.50495 14.551C8.1454 14.2078 8.13215 13.6381 8.47536 13.2785C8.81856 12.919 9.38826 12.9057 9.7478 13.2489L11.1005 14.5401V10.242C11.1005 9.74495 11.5034 9.34201 12.0005 9.34201Z" fill="#007AFF"/>
</svg>

<svg xmlns="http://www.w3.org/2000/svg" width="24" height="24" fill="none"><path fill="currentColor" fill-rule="evenodd" d="M8.334 4.283c-.464 0-.906.195-1.22.537l-.572.624H17.46l-.573-.624a1.65 1.65 0 0 0-1.219-.537zm10.709 2.961H4.958c-.13.24-.2.512-.2.79v8.862A2.505 2.505 0 0 0 7.262 19.4h9.475a2.505 2.505 0 0 0 2.506-2.505v-8.86c0-.279-.07-.55-.201-.791M3.8 5.774a3.45 3.45 0 0 0-.843 2.26v8.862A4.305 4.305 0 0 0 7.263 21.2h9.475a4.305 4.305 0 0 0 4.306-4.305v-8.86c0-.864-.324-1.697-.908-2.334l-1.923-2.098a3.45 3.45 0 0 0-2.546-1.12H8.334c-.968 0-1.892.407-2.546 1.12L3.865 5.701zM12 9.342a.9.9 0 0 1 .9.9v4.298l1.353-1.291a.9.9 0 1 1 1.243 1.302l-2.874 2.743a.9.9 0 0 1-1.243 0l-2.874-2.743a.9.9 0 0 1 1.243-1.302L11.1 14.54v-4.298a.9.9 0 0 1 .9-.9" clip-rule="evenodd"/></svg>
